X:1
T:Title
%%score ( 1 2 ) { 3 | 4 }
L:1/8
M:4/4
K:G
V:1 treble nm="Grand Piano, Piano"
V:2 treble 
V:3 bass nm="Grand Piano, Piano"
V:4 bass 
V:1
 z4 z2[Q:1/4=100] [B,G]>[CA] | [DB]>[DB] [GB]>[FB] [=FB]2 [FA]>[FG] | %2
w: 1.~If~ the~|world~ from~ you~ with hold~ of~ its~|
[M:3/4] [EA]>[EG] [EG]>[CE] [B,G]2 |[M:1/4] [B,G]>[CA] | %4
w: sil ver~ and~ its~ gold,~|and~ you~|
[M:4/4] [DB]>[DB] [DB]>[DB] [^CB]>[CB] [CA]>[CG] |[M:3/4] [CA]6 |[M:1/4] [B,G]>[CA] | %7
w: have~ to~ get~ a long~ with~ mea ger~|fare,~|just~ re|
[M:4/4] [DB]>[DB] [GB]>[FB] [=FB]2 [FA]>[FG] |[M:3/4] [EA]>[EG] [EG]>[CE] [EG]2 |[M:1/4] [EG]>A | %10
w: mem ber~ in~ his~ Word,~ how~ he~|feeds~ the~ lit tle~ bird,~|take~ your~|
[M:4/4] [GB]>[GB] [GB]>[GB] [GA]>[EG] [FA]>[FB] |[M:3/4] [DG]6 |[M:1/4] [GB]>[Ac] |[M:4/4] d6 z2 | %14
w: bur den~ to~ the~ Lord~ and~ leave~ it~|there.~|||
[M:3/4] G6 |[M:1/4] [=FA]>[EB] |[M:4/4] [Ec]>[Ec] [Ec]>[Ec] [Fc]>[Fc] [FB]>[F_B] |[M:3/4] [GB]6 | %18
w: ||||
[M:1/4] [GB]>[Ac] |[M:4/4] [Bd]>[Gd] [Fd]>[Fd] [=Fd]2 [FB]>[FA] |[M:7/8] [EG]>[EA][EG]>[CE] [EG]3 | %21
w: |||
[M:1/4] [EG]>[GA] |[M:4/4] [GB]>[GB] [GB]>[DG] [FA]>[=F^G] [^FA]>[FB] |[M:3/4] G6 |] %24
w: |||
V:2
 x8 | x8 |[M:3/4] x6 |[M:1/4] x2 |[M:4/4] x8 |[M:3/4] x6 |[M:1/4] x2 |[M:4/4] x8 |[M:3/4] x6 | %9
[M:1/4] x2 |[M:4/4] x8 |[M:3/4] x6 |[M:1/4] x2 |[M:4/4] B2 G>G F2 [FB]>[FA] |[M:3/4] z2 D>E =F2 | %15
[M:1/4] x2 |[M:4/4] x8 |[M:3/4] x6 |[M:1/4] x2 |[M:4/4] x8 |[M:7/8] x7 |[M:1/4] x2 |[M:4/4] x8 | %23
[M:3/4] D2 E>^D =D2 |] %24
V:3
 z4 z2 G,>G, | G,>G, G,>G, G,2 G,>G, |[M:3/4][K:treble] C>C C>G, G,2 |[M:1/4][K:bass] G,>F, | %4
[M:4/4] G,>G, G,>G, G,>G, G,>E, |[M:3/4] F,6 |[M:1/4] G,>F, |[M:4/4] G,>G, G,>G, G,2 G,>G, | %8
[M:3/4][K:treble] C>C C>G, C2 |[M:1/4] A,>^C |[M:4/4] D>D D>D ^C>C =C>D |[M:3/4] B,6 |[M:1/4] z2 | %13
[M:4/4] z2 B,>B, C2 D>C |[M:3/4][K:bass] B,2 B,>B, B,2 |[M:1/4] B,>[K:treble]D | %16
[M:4/4] C>C C>C A,>A, D>D |[M:3/4] D6 |[M:1/4] z2 |[M:4/4] D>B, C>C D2 D>D |[M:7/8] E>CC>G, C3 | %21
[M:1/4] ^C>E |[M:4/4] D>D D>B, C>B, C>D |[M:3/4] B,2 C>C B,2 |] %24
V:4
 z4 z2 G,,>G,, | G,,>G,, G,,>G,, G,,2 A,,>B,, |[M:3/4] C,>C, C,>C, G,,2 |[M:1/4] D,>D, | %4
[M:4/4] z2 F,2 E,>E, A,,>A,, |[M:3/4] D,6 |[M:1/4] D,>D, |[M:4/4] G,,>G,, G,,>G,, G,,2 A,,>B,, | %8
[M:3/4] C,>C, C,>C, C,2 |[M:1/4] ^C,>E, |[M:4/4] D,>D, D,>D, E,>E, D,>D, |[M:3/4] G,6 |[M:1/4] z2 | %13
[M:4/4] z2 D,>D, D,2 D,>D, |[M:3/4] G,2 G,>G, G,2 |[M:1/4] G,>G, |[M:4/4] C,>C, C,>C, D,>D, D,>D, | %17
[M:3/4] G,2 D,>D, G,2 |[M:1/4] z2 |[M:4/4] G,>G, A,>A, B,2 G,>G, |[M:7/8] C,>C,C,>C, C,3 | %21
[M:1/4] ^C,>C, |[M:4/4] D,>D, D,>D, D,>D, D,>D, |[M:3/4] G,6 |] %24

